X: 321
T: Rothemurches Rant
R: strathspey
M: C
L: 1/8
Z: 2012 John Chambers <jc:trillian.mit.edu>
B: J. Anderson "Budget of Strathspeys, Reels and Country Dances" (Early 1800s) p.32 #1
F: http://imslp.org/wiki/Anderson%27s_Budget_of_Strathspeys,_Reels_and_Country_Dances_(Various)
N: The 4th part has a final repeat, but no initial repeat.  Initial repeat added.
K: D
   A | F>EF<D (FA)A2 | (dA)(BA) (dA)(Bd) | F>EF<D (FA)(Ad) | B>dA>d FEE :|
|: a | f2(e>f) e>fe>B | d>e(fd) e/d/c/B/ dA | BBb>a f2(ed) | BdAd FEE :|
|: a | f<aa>b a>baf | f<bb>c' b>c'ba | (fa)(ef) .defd | (dba)f (fe)e :|
|: a | f2(ed) (ef)b2 | a>ff>e (dB)(Bd) | .A.B.d.e (gf)(ed) | B>dA>d | FEE :|

%%sep 2 1 500
%%sep 1 1 500

